X: 1
T: Ki Lashem
M: 2/4
L: 1/8
K: Gm
[|"Gm"c2 B2 | c2 B2  \
| cc B2 | G4 \
| B2 G2 | B2 G2  \
| B2 G2 | "F"F2 zF \
| "Cm"c2 c2 | "F7"cB dc |
| "Bb"B4- | B2 z2 \
| "Gm"d2 B2 | G4  \
| BB G2 | "F"F3 F \
| "Eb"B2 B2 | "F"AG AF  \
| "Gm"G4- | G2 z2 |]
